polaris-icons/icons/new-icons/SmileyNeutralMajor.svg

<svg width="20" height="20" viewBox="0 0 20 20" fill="none" xmlns="http://www.w3.org/2000/svg">
<path d="M7.5 11.75C7.08579 11.75 6.75 12.0858 6.75 12.5C6.75 12.9142 7.08579 13.25 7.5 13.25H12.5C12.9142 13.25 13.25 12.9142 13.25 12.5C13.25 12.0858 12.9142 11.75 12.5 11.75H7.5Z" fill="#4A4A4A"/>
<path d="M10.75 7.75C10.75 7.33579 11.0858 7 11.5 7C11.9142 7 12.25 7.33579 12.25 7.75V9.25C12.25 9.66421 11.9142 10 11.5 10C11.0858 10 10.75 9.66421 10.75 9.25V7.75Z" fill="#4A4A4A"/>
<path d="M8.5 7C8.08579 7 7.75 7.33579 7.75 7.75V9.25C7.75 9.66421 8.08579 10 8.5 10C8.91421 10 9.25 9.66421 9.25 9.25V7.75C9.25 7.33579 8.91421 7 8.5 7Z" fill="#4A4A4A"/>
<path fill-rule="evenodd" clip-rule="evenodd" d="M17 10C17 13.866 13.866 17 10 17C6.13401 17 3 13.866 3 10C3 6.13401 6.13401 3 10 3C13.866 3 17 6.13401 17 10ZM15.5 10C15.5 13.0376 13.0376 15.5 10 15.5C6.96243 15.5 4.5 13.0376 4.5 10C4.5 6.96243 6.96243 4.5 10 4.5C13.0376 4.5 15.5 6.96243 15.5 10Z" fill="#4A4A4A"/>
</svg>

<svg viewBox="0 0 20 20" xmlns="http://www.w3.org/2000/svg"><path d="M7.5 11.75a.75.75 0 0 0 0 1.5h5a.75.75 0 0 0 0-1.5h-5Z" fill="#5C5F62"/><path d="M10.75 7.75a.75.75 0 0 1 1.5 0v1.5a.75.75 0 0 1-1.5 0v-1.5Z" fill="#5C5F62"/><path d="M8.5 7a.75.75 0 0 0-.75.75v1.5a.75.75 0 0 0 1.5 0v-1.5a.75.75 0 0 0-.75-.75Z" fill="#5C5F62"/><path fill-rule="evenodd" d="M17 10a7 7 0 1 1-14 0 7 7 0 0 1 14 0Zm-1.5 0a5.5 5.5 0 1 1-11 0 5.5 5.5 0 0 1 11 0Z" fill="#5C5F62"/></svg>
